Papirus/48x48/apps/tuxedo-webfai-creator.svg

<svg width="48" height="48" version="1.1" xmlns="http://www.w3.org/2000/svg">
 <rect x="10.000007" y="17.000009" width="27.000018" height="27.000018" ry="1.8517706" style="opacity:.2"/>
 <rect x="10.000007" y="16.000007" width="27.000018" height="27.000018" ry="1.8517706" style="fill:#c2352a"/>
 <path d="m24.436411 19.011639c-1.042519 0.17831-4.192286 3.288135-4.563796 4.496522 0 0.685653 4.078795 4.756391 4.796459 4.756391 0.302339 0 0.617559-0.165916 0.800322-0.326235 0.320798-0.281557 0.516645-0.818285 0.434391-1.189397-0.04604-0.207495-0.36654-0.621185-0.909757-1.174105l-0.837747-0.853368 0.720199 0.06977c2.95524 0.286055 5.522032 2.466351 6.370023 5.40886 0.325768 1.130327 0.327594 2.82377 0.0043 3.944602-0.949515 3.292332-3.832643 5.466032-7.250165 5.466032-3.999686 0-7.145193-2.925619-7.497635-6.973368-0.0115-0.990799-0.315565-1.631773-1.264065-1.631773-0.886937 0-1.169296 0.71024-1.230555 1.468255-0.06116 0.757416 0.220086 2.07435 0.588654 3.069446 1.210879 3.269544 4.011755 5.662131 7.441143 6.35568 0.461471 0.09326 1.211387 0.101049 1.958868 0.101049 0.713099 0 1.423866-0.0035 1.87986-0.08995 6.980687-1.32313 10.385429-9.298191 6.476111-15.166718-1.64598-2.470748-4.481948-4.158493-7.397328-4.403469l-0.748496-0.06277 0.820708-0.842174c0.600014-0.615887 0.859858-0.934726 0.88856-1.201991 0.08722-0.812388-0.918885-1.317233-1.480054-1.221281z" style="opacity:.2"/>
 <path d="m24.436411 18.011639c-1.042519 0.17831-4.192286 3.288135-4.563796 4.496522 0 0.685653 4.078795 4.756391 4.796459 4.756391 0.302339 0 0.617559-0.165916 0.800322-0.326235 0.320798-0.281557 0.516645-0.818285 0.434391-1.189397-0.04604-0.207495-0.36654-0.621185-0.909757-1.174105l-0.837747-0.853368 0.720199 0.06977c2.95524 0.286055 5.522032 2.466351 6.370023 5.40886 0.325768 1.130327 0.327594 2.82377 0.0043 3.944602-0.949515 3.292332-3.832643 5.466032-7.250165 5.466032-3.999686 0-7.145193-2.925619-7.497635-6.973368-0.0115-0.990799-0.315565-1.631773-1.264065-1.631773-0.886937 0-1.169296 0.71024-1.230555 1.468255-0.06116 0.757416 0.220086 2.07435 0.588654 3.069446 1.210879 3.269544 4.011755 5.662131 7.441143 6.35568 0.461471 0.09326 1.211387 0.101049 1.958868 0.101049 0.713099 0 1.423866-0.0035 1.87986-0.08995 6.980687-1.32313 10.385429-9.298191 6.476111-15.166718-1.64598-2.470748-4.481948-4.158493-7.397328-4.403469l-0.748496-0.06277 0.820708-0.842174c0.600014-0.615887 0.859858-0.934726 0.88856-1.201991 0.08722-0.812388-0.918885-1.317233-1.480054-1.221281z" style="fill:#ececec"/>
 <rect x="15.000011" y="3.9999991" width="17.000012" height="12.000009" style="fill:#b3b3b3"/>
 <path d="m19 6h2v4h-2z" style="fill:#666666"/>
 <path d="m26 6h2v4h-2z" style="fill:#666666"/>
 <path d="m11.851562 16c-1.02588 0-1.851562 0.825682-1.851562 1.851562v1c0-1.02588 0.825682-1.851562 1.851562-1.851562h23.296876c1.02588 0 1.851562 0.825682 1.851562 1.851562v-1c0-1.02588-0.825682-1.851562-1.851562-1.851562h-23.296876z" style="fill:#ffffff;opacity:.2"/>
 <path d="m15 4v1h17.1428v-1z" style="fill:#ffffff;opacity:.2"/>
 <rect x="19" y="6" width="2" height="1" style="opacity:.2"/>
 <rect x="26" y="6" width="2" height="1" style="opacity:.2"/>
</svg>

<svg xmlns="http://www.w3.org/2000/svg" width="48" height="48" version="1.1">
 <rect style="fill:#b3b3b3" width="17" height="13" x="15" y="4"/>
 <rect style="opacity:0.2" width="27" height="27" x="10" y="17" ry="1.852"/>
 <rect style="fill:#c2352a" width="27" height="27" x="10" y="16" ry="1.852"/>
 <path style="opacity:0.1" d="M 24.436,19.012 C 23.394,19.19 20.244,22.3 19.873,23.508 19.873,24.194 23.951,28.265 24.669,28.265 24.971,28.265 25.287,28.099 25.469,27.938 25.79,27.657 25.986,27.12 25.904,26.749 25.858,26.541 25.537,26.128 24.994,25.575 L 24.156,24.721 24.876,24.791 C 27.832,25.077 30.399,27.258 31.247,30.2 31.572,31.33 31.574,33.024 31.251,34.145 30.301,37.437 27.418,39.611 24.001,39.611 20.001,39.611 16.855,36.685 16.503,32.637 16.492,31.647 16.187,31.006 15.239,31.006 14.352,31.006 14.07,31.716 14.008,32.474 13.947,33.231 14.228,34.548 14.597,35.543 15.808,38.813 18.609,41.205 22.038,41.899 22.5,41.992 23.25,42 23.997,42 24.71,42 25.421,41.996 25.877,41.91 32.858,40.587 36.262,32.612 32.353,26.743 30.707,24.273 27.871,22.585 24.956,22.34 L 24.207,22.277 25.028,21.435 C 25.628,20.819 25.888,20.5 25.916,20.233 26.004,19.421 24.998,18.916 24.436,19.012 Z"/>
 <path style="fill:#ececec" d="M 24.436,18.012 C 23.394,18.19 20.244,21.3 19.873,22.508 19.873,23.194 23.951,27.265 24.669,27.265 24.971,27.265 25.287,27.099 25.469,26.938 25.79,26.657 25.986,26.12 25.904,25.749 25.858,25.541 25.537,25.128 24.994,24.575 L 24.156,23.721 24.876,23.791 C 27.832,24.077 30.399,26.258 31.247,29.2 31.572,30.33 31.574,32.024 31.251,33.145 30.301,36.437 27.418,38.611 24.001,38.611 20.001,38.611 16.855,35.685 16.503,31.637 16.492,30.647 16.187,30.006 15.239,30.006 14.352,30.006 14.07,30.716 14.008,31.474 13.947,32.231 14.228,33.548 14.597,34.543 15.808,37.813 18.609,40.205 22.038,40.899 22.5,40.992 23.25,41 23.997,41 24.71,41 25.421,40.996 25.877,40.91 32.858,39.587 36.262,31.612 32.353,25.743 30.707,23.273 27.871,21.585 24.956,21.34 L 24.207,21.277 25.028,20.435 C 25.628,19.819 25.888,19.5 25.916,19.233 26.004,18.421 24.998,17.916 24.436,18.012 Z"/>
 <path style="fill:#666666" d="M 19,6 H 21 V 10 H 19 Z"/>
 <path style="fill:#666666" d="M 26,6 H 28 V 10 H 26 Z"/>
 <path style="opacity:0.1;fill:#ffffff" d="M 11.852,16 C 10.826,16 10,16.826 10,17.852 V 18.852 C 10,17.826 10.826,17 11.852,17 H 35.148 C 36.174,17 37,17.826 37,18.852 V 17.852 C 37,16.826 36.174,16 35.148,16 Z"/>
 <path style="opacity:0.2;fill:#ffffff" d="M 15,4 V 5 H 32.143 V 4 Z"/>
 <rect style="opacity:0.2" width="2" height="1" x="19" y="6"/>
 <rect style="opacity:0.2" width="2" height="1" x="26" y="6"/>
</svg>
